X:1
T:Children’s Praise, 77.75 D
T:Joseph Barnby (1838-1896)
T:Children’s Praise, 77.75 D
T:Public Domain
C:Joseph Barnby (1838-1896)
Z:Public Domain
%%score ( 1 2 ) ( 3 4 )
L:1/8
M:4/4
K:Eb
V:1 treble 
V:2 treble 
V:3 bass 
V:4 bass 
V:1
 [EG]2 [EG]2 E2 [EG]2 | D2 z c [DB]4 | [EB]2 [Ee]2 [Ed]2 [Ec]2 | [EB]2 [EG]2 [DF]4 | %4
 [EG]2 [EG]2 E2 [EG]2 | D2 z c ([EB]2 [Gc]2) | [Fd]2 [FB]2 F2 [Ec]2 | [DB]6 z2 | %8
 [B,F]2 [B,F]2 [B,F]2 (EF) | [B,G]2 [EB]2 [EB]4 | F2 [DF]2 [B,F]2 (EF) | [B,G]2 [EB]2 [EB]4 | %12
 [Ec]2 [Ec]2 [EB]2 (AB) | [Ec]2 [Ee]2 [Ee]4 | (EF)(GA) B2 [B,D]2 | [B,E]8 |] %16
V:2
 x4 E2 x2 | B3 D2 x3 | x8 | x8 | x4 E2 x2 | B3 D2 x3 | x4 F2 x2 | x8 | x6 B,2 | x8 | F2 x2 B,2 x2 | %11
 x8 | x6 E2 | x8 | B,2 x B2 x3 | x8 |] %16
V:3
 [E,B,]2 [B,,B,]2 [G,B,]2 [E,B,]2 | [F,A,]2 [B,,A,]2 (F,2 A,2) | [G,B,]2 [E,G,]2 A,2 [A,,A,]2 | %3
 [E,G,]2 [G,B,]2 B,4 | [E,B,]2 [B,,B,]2 [G,B,]2 [E,B,]2 | [F,A,]2 [B,,B,]2 (G,2 [E,B,]2) | %6
 (B,C)(DE) [F,F]2 [F,=A,]2 | B,6 z2 | [D,A,]2 [B,,A,]2 [D,A,]2 [B,,A,]2 | %9
 [E,G,]2 [B,,G,]2 G,2 B,,2 | [D,A,]2 [B,,A,]2 [D,A,]2 [B,,A,]2 | [E,G,]2 [B,,G,]2 (G,2 E,2) | %12
 [A,C]2 [E,C]2 [G,_D]2 [E,D]2 | [A,,A,C]2 E,2 [=A,,E,F,C]4 | %14
 ([E,G,-][F,G,])(G,A,) B,2 [B,,F,A,B,]2 | [E,G,]8 |] %16
V:4
 x8 | x4 A,4 | x4 A,2 x2 | x4 B,4 | x8 | x4 G,2 x2 | F,2 F,2 x4 | B,6 x2 | x8 | x4 G,4 | x8 | %11
 x4 _D4 | x8 | x2 E,2 x4 | B,,2 x B,2 x3 | x8 |] %16

